X:1
T:Title
%%score { ( 1 3 5 ) | ( 2 4 ) }
L:1/8
Q:1/4=104
M:6/8
K:C
V:1 treble nm="Grand Piano"
V:3 treble 
V:5 treble 
V:2 bass 
V:4 bass 
V:1
 [G,CE]3 [A,EA]2 [_B,E] | [B,FG] [B,FG]2- [B,FG]3 | d3 e2 d | [Ec]6 | [Ac]3 [GB]2 [FA] | %5
w: C.~Harold~Lowden * *|||||
 [Gc] G2- G3 | E3 D2 A | [G,B,D]6 | [G,CE]3 [A,EA]2 [_B,E] | [B,FG] [B,FG]2- [B,FG]3 | d3 e2 d | %11
w: ||||||
 c6 | c3 B2 A | c G2- G3 | [^FA]3 [=FB]2 [Ec] | [Ec]6 | E3 G3 | G3 F3 | z3 z e2 | d3 c3 | d3 c3 | %21
w: ||||||||||
 c3 B3 | cBA z B,D | E6 | E3 G3 | G3 F3 | FGA Be>d | d3 c3 | z ^FF z _EE | A3 G3 | %30
w: |||||||||
 [C^FA][B,FB][Fc] [=Fd]2 [Ec] |[M:5/8] [Ec]-[Ec]- [Ec]3 |] %32
w: ||
V:2
 C,3 ^C,2 C, | D, D,2- D,3 | [G,B,F]3 [G,A,G]2 [G,B,F] | [C,C]6 | [F,C]3 [F,C]2 [F,C] | %5
 [E,C] [E,C]2- [E,C]3 | [D,^F,C]3 [D,F,C]2 [D,F,C] | G,,6 | C,3 ^C,2 C, | D, D,2- D,3 | %10
 [G,B,F]3 [G,A,G]2 [^G,B,F] | [A,CE]6 | [^F,A,_E]3 [F,B,E]2 [F,CE] | [G,CE] [G,CE]2- [G,CE]3 | %14
 [D,C]3 [G,D]2 [C,C] | [C,G,]6 | z G,G, z _B,B, | z B,B, z B,B, | %18
 [D,,D,][F,G,B,][F,G,B,] G,,[F,G,B,][F,G,] | C,[E,G,][E,G,] G,,[E,G,][E,G,] | %20
 [E,,E,]3 z[K:treble] ^FF | z[K:treble] FF[K:bass] z[K:treble] FF | %22
 D,[F,G,B,][F,G,B,] G,,[F,G,][F,G,B,] | C,E,E, G,,A,,B,, | z G,G, z _B,B, | z B,B, z B,B, | %26
 D,[F,G,B,][F,G,B,] G,,[F,A,B,]>^G,, | A,,[E,A,][E,A,] A,,[E,A,][E,A,] | z _EE z CC | z CC z G,G, | %30
 D,D,[D,A,] [G,,B,]2 [C,C] |[M:5/8] [C,G,]-[C,G,]- [C,G,]3 |] %32
V:3
 x6 | x6 | x6 | x6 | x6 | x6 | x6 | x6 | x6 | x6 | x6 | x6 | x6 | x6 | x6 | x6 | z CC z EE | %17
 z FF z DD | FGA .B2 z/ d/ | z CC z CC | z GG z AA | z AA z GG | z3 .G3 | z [G,C][G,C] z3 | %24
 z CC z EE | z FF z DD | x6 | z CC z CC | c3 [^G,^F]3 | z EE z CC | x6 |[M:5/8] x5 |] %32
V:4
 x6 | x6 | x6 | x6 | x6 | x6 | x6 | x6 | x6 | x6 | x6 | x6 | x6 | x6 | x6 | x6 | %16
 [C,,C,]3 [^C,,^C,]3 | [D,,D,]3 [G,,,G,,]3 | x6 | x6 | z3 [_E,,_E,]3[K:treble] | %21
 [D,,D,]3[K:treble][K:bass] [G,,,G,,]3[K:treble] | x6 | x6 | [C,,C,]3 [^C,,^C,]3 | %25
 [D,,D,]3 [G,,,G,,]3 | x6 | x6 | [^G,,^G,]3 =G,,3 | [G,,G,]3 [E,,E,]3 | x6 |[M:5/8] x5 |] %32
V:5
 x6 | x6 | x6 | x6 | x6 | x6 | x6 | x6 | x6 | x6 | x6 | x6 | x6 | x6 | x6 | x6 | x6 | x6 | %18
 z3 z2 B, | x6 | x6 | x6 | x6 | x6 | x6 | x6 | x6 | x6 | x6 | x6 | x6 |[M:5/8] x5 |] %32

